res/skins/Deere/icon/ic_loop_48px.svg

<?xml version="1.0" encoding="UTF-8" standalone="no"?>
<svg
   xmlns:dc="http://purl.org/dc/elements/1.1/"
   xmlns:cc="http://creativecommons.org/ns#"
   xmlns:rdf="http://www.w3.org/1999/02/22-rdf-syntax-ns#"
   xmlns:svg="http://www.w3.org/2000/svg"
   xmlns="http://www.w3.org/2000/svg"
   xmlns:sodipodi="http://sodipodi.sourceforge.net/DTD/sodipodi-0.dtd"
   xmlns:inkscape="http://www.inkscape.org/namespaces/inkscape"
   width="48"
   height="48"
   viewBox="0 0 48 48"
   id="svg2"
   version="1.1"
   inkscape:version="0.92.3 (2405546, 2018-03-11)"
   sodipodi:docname="ic_loop_48px.svg">
  <metadata
     id="metadata12">
    <rdf:RDF>
      <cc:Work
         rdf:about="">
        <dc:format>image/svg+xml</dc:format>
        <dc:type
           rdf:resource="http://purl.org/dc/dcmitype/StillImage" />
      </cc:Work>
    </rdf:RDF>
  </metadata>
  <defs
     id="defs10" />
  <sodipodi:namedview
     pagecolor="#ffffff"
     bordercolor="#666666"
     borderopacity="1"
     objecttolerance="10"
     gridtolerance="10"
     guidetolerance="10"
     inkscape:pageopacity="0"
     inkscape:pageshadow="2"
     inkscape:window-width="1366"
     inkscape:window-height="740"
     id="namedview8"
     showgrid="false"
     inkscape:zoom="11.313708"
     inkscape:cx="18.101674"
     inkscape:cy="13.583601"
     inkscape:window-x="0"
     inkscape:window-y="0"
     inkscape:window-maximized="1"
     inkscape:current-layer="g6198" />
  <path
     d="M 0,2 H 48 V 50 H 0 Z"
     id="path6"
     inkscape:connector-curvature="0"
     style="fill:none" />
  <path
     inkscape:connector-curvature="0"
     style="fill:none"
     d="M 48,-2e-7 H 96 V 48 H 48 Z"
     id="path4-9" />
  <g
     id="g6137"
     transform="translate(-1.5820024,-0.40981284)">
    <g
       id="g6198"
       transform="translate(-0.57599546)">
      <path
         inkscape:connector-curvature="0"
         style="fill:none;stroke-width:0.98033118"
         d="M 2.1579978,1.3446317 H 50.157998 V 47.474994 H 2.1579978 Z"
         id="path4" />
      <path
         inkscape:connector-curvature="0"
         style="fill:#d2d2d2;fill-opacity:1;stroke-width:0.98033118"
         d="m 28.157998,4.2277794 h -4 V 23.448764 h 4 z"
         id="path6269" />
      <path
         id="path1420"
         d="M 17.110011,43.723845 27.958204,36.780637 19.478011,26.906063 17.109999,43.72384 Z"
         style="fill:#d2d2d2;fill-opacity:1;stroke-width:1.13221049"
         inkscape:connector-curvature="0"
         sodipodi:nodetypes="ccccc" />
      <path
         style="opacity:1;fill:#ffffff;fill-opacity:0;fill-rule:evenodd;stroke:#d2d2d2;stroke-width:2.82139301;stroke-linecap:round;stroke-linejoin:miter;stroke-miterlimit:4;stroke-dasharray:none;stroke-opacity:1;paint-order:normal"
         d="M 18.574341,35.736363 C 12.967775,33.832033 10.216377,28.612524 9.9235355,23.467846 9.6306939,18.323168 12.52562,12.721022 17.210466,11.068535"
         id="path6273"
         inkscape:connector-curvature="0"
         sodipodi:nodetypes="csc" />
      <path
         transform="scale(-1,1)"
         style="opacity:1;fill:#ffffff;fill-opacity:0;fill-rule:evenodd;stroke:#d2d2d2;stroke-width:2.82139301;stroke-linecap:round;stroke-linejoin:miter;stroke-miterlimit:4;stroke-dasharray:none;stroke-opacity:1;paint-order:normal"
         d="m -31.584561,36.378423 c -6.927751,-1.782658 -9.072681,-6.300188 -9.874971,-11.795995 -0.80229,-5.495806 1.849153,-11.752512 7.147418,-13.50027"
         id="path6273-8"
         inkscape:connector-curvature="0"
         sodipodi:nodetypes="csc" />
    </g>
  </g>
</svg>

<svg id="svg2" width="48" height="48" version="1.1" viewBox="0 0 48 48" xmlns="http://www.w3.org/2000/svg"><path id="path6" d="m0 2h48v48h-48z" fill="none"/><path id="path4-9" d="m48-2e-7h48v48h-48z" fill="none"/><g id="g6137" transform="translate(-1.582 -.40981)"><g id="g6198" transform="translate(-.576)"><path id="path4" d="m2.158 1.3446h48v46.13h-48z" fill="none" stroke-width=".98033"/><path id="path6269" d="m28.158 4.2278h-4v19.221h4z" fill="#d2d2d2" stroke-width=".98033"/><path id="path1420" d="m17.11 43.724 10.848-6.9432-8.4802-9.8746-2.368 16.818z" fill="#d2d2d2" stroke-width="1.1322"/><path id="path6273" d="m18.574 35.736c-5.6066-1.9043-8.358-7.1238-8.6508-12.269-0.29284-5.1447 2.6021-10.747 7.2869-12.399" fill-opacity="0" stroke="#d2d2d2" stroke-linecap="round" stroke-width="2.8214" style="paint-order:normal"/><path id="path6273-8" transform="scale(-1,1)" d="m-31.585 36.378c-6.9278-1.7827-9.0727-6.3002-9.875-11.796-0.80229-5.4958 1.8492-11.753 7.1474-13.5" fill-opacity="0" stroke="#d2d2d2" stroke-linecap="round" stroke-width="2.8214" style="paint-order:normal"/></g></g></svg>
